img/Item-3.svg

<svg width="190" height="33" viewBox="0 0 190 33" fill="none" xmlns="http://www.w3.org/2000/svg">
<path d="M70.6269 12.1256H59.4352V15.4256H67.3938C66.9959 20.0756 63.1161 22.1256 59.485 22.1256C54.8093 22.1256 50.7306 18.4256 50.7306 13.2756C50.7306 8.22559 54.6104 4.32559 59.485 4.32559C63.2653 4.32559 65.4539 6.72559 65.4539 6.72559L67.742 4.32559C67.742 4.32559 64.7575 1.02559 59.3358 1.02559C52.4218 0.975587 47.0995 6.82559 47.0995 13.1756C47.0995 19.3756 52.1233 25.4256 59.5347 25.4256C66.0508 25.4256 70.8259 20.9756 70.8259 14.3256C70.8259 12.9256 70.6269 12.1256 70.6269 12.1256Z" fill="white"/>
<path fill-rule="evenodd" clip-rule="evenodd" d="M71.8705 17.4755C71.8705 13.2755 75.1534 9.67554 79.7296 9.67554C83.5099 9.67554 87.5886 12.3755 87.6384 17.5755C87.6384 22.1755 84.1565 25.4255 79.829 25.4255C75.0539 25.4255 71.8705 21.7755 71.8705 17.4755ZM84.1565 17.5755C84.1565 14.6755 82.0176 12.8255 79.7793 12.8255C77.2425 12.8255 75.3026 14.8255 75.3523 17.5255C75.3523 20.3255 77.2922 22.3255 79.7793 22.3255C82.0674 22.3255 84.1565 20.4755 84.1565 17.5755Z" fill="white"/>
<path fill-rule="evenodd" clip-rule="evenodd" d="M88.9814 17.4755C88.9814 13.2755 92.2643 9.67554 96.8404 9.67554C100.621 9.67554 104.699 12.3755 104.749 17.5755C104.749 22.1755 101.267 25.4255 96.9399 25.4255C92.1648 25.4255 88.9814 21.7755 88.9814 17.4755ZM101.267 17.5755C101.267 14.6755 99.1285 12.8255 96.8902 12.8255C94.3534 12.8255 92.4135 14.8255 92.4632 17.5255C92.4632 20.3255 94.4031 22.3255 96.8902 22.3255C99.1782 22.3255 101.267 20.4755 101.267 17.5755Z" fill="white"/>
<path fill-rule="evenodd" clip-rule="evenodd" d="M106.092 17.5756C106.092 13.4256 109.375 9.72559 113.603 9.72559C115.444 9.72559 116.836 10.4256 117.732 11.5256V10.1756H121.015V24.3256C121.015 29.8756 117.831 32.5256 113.653 32.5256C109.823 32.5256 107.684 30.1756 106.639 27.9256L109.674 26.6756C110.121 27.6756 111.315 29.4756 113.703 29.4756C116.19 29.4756 117.831 27.8256 117.831 25.1256V23.5756C116.886 24.6256 115.742 25.4756 113.504 25.4756C109.922 25.4756 106.092 22.2756 106.092 17.5756ZM118.08 17.6256C118.08 14.6256 115.941 12.8256 113.902 12.8256C111.713 12.8256 109.574 14.5756 109.524 17.6756C109.524 20.5256 111.613 22.3756 113.852 22.3756C115.991 22.3756 118.08 20.7256 118.08 17.6256Z" fill="white"/>
<path fill-rule="evenodd" clip-rule="evenodd" d="M128.426 17.5255C128.426 12.8255 131.759 9.67554 135.738 9.67554C138.822 9.67554 141.16 11.7755 142.204 14.1755L142.751 15.4755L132.256 19.8755C132.903 21.0755 133.897 22.2755 136.086 22.2755C138.026 22.2755 139.22 21.2255 139.916 20.1255L142.652 21.9755C141.458 23.5755 139.369 25.4255 136.086 25.4255C132.156 25.4255 128.426 22.4755 128.426 17.5255ZM138.772 14.4255C138.275 13.4755 137.28 12.7255 135.837 12.7255C133.599 12.7255 131.41 15.0755 131.808 17.3755L138.772 14.4255Z" fill="white"/>
<path d="M123.452 24.9756H126.884V1.77563H123.452V24.9756Z" fill="white"/>
</svg>

<svg width="190" height="33" fill="none" xmlns="http://www.w3.org/2000/svg"><path d="M70.627 12.126H59.435v3.3h7.959c-.398 4.65-4.278 6.7-7.909 6.7-4.676 0-8.754-3.7-8.754-8.85 0-5.05 3.88-8.95 8.754-8.95 3.78 0 5.969 2.4 5.969 2.4l2.288-2.4s-2.985-3.3-8.406-3.3C52.422.976 47.1 6.826 47.1 13.176c0 6.2 5.023 12.25 12.435 12.25 6.516 0 11.29-4.45 11.29-11.1 0-1.4-.198-2.2-.198-2.2z" fill="#fff"/><path fill-rule="evenodd" clip-rule="evenodd" d="M71.87 17.476c0-4.2 3.283-7.8 7.86-7.8 3.78 0 7.859 2.7 7.908 7.9 0 4.6-3.482 7.85-7.809 7.85-4.775 0-7.958-3.65-7.958-7.95zm12.286.1c0-2.9-2.138-4.75-4.377-4.75-2.536 0-4.476 2-4.427 4.7 0 2.8 1.94 4.8 4.427 4.8 2.288 0 4.377-1.85 4.377-4.75zM88.981 17.476c0-4.2 3.283-7.8 7.86-7.8 3.78 0 7.858 2.7 7.908 7.9 0 4.6-3.482 7.85-7.81 7.85-4.774 0-7.958-3.65-7.958-7.95zm12.286.1c0-2.9-2.138-4.75-4.377-4.75-2.537 0-4.477 2-4.427 4.7 0 2.8 1.94 4.8 4.427 4.8 2.288 0 4.377-1.85 4.377-4.75zM106.092 17.576c0-4.15 3.283-7.85 7.511-7.85 1.841 0 3.233.7 4.129 1.8v-1.35h3.283v14.15c0 5.55-3.184 8.2-7.362 8.2-3.83 0-5.969-2.35-7.014-4.6l3.035-1.25c.447 1 1.641 2.8 4.029 2.8 2.487 0 4.128-1.65 4.128-4.35v-1.55c-.945 1.05-2.089 1.9-4.327 1.9-3.582 0-7.412-3.2-7.412-7.9zm11.988.05c0-3-2.139-4.8-4.178-4.8-2.189 0-4.328 1.75-4.378 4.85 0 2.85 2.089 4.7 4.328 4.7 2.139 0 4.228-1.65 4.228-4.75zM128.426 17.526c0-4.7 3.333-7.85 7.312-7.85 3.084 0 5.422 2.1 6.466 4.5l.547 1.3-10.495 4.4c.647 1.2 1.641 2.4 3.83 2.4 1.94 0 3.134-1.05 3.83-2.15l2.736 1.85c-1.194 1.6-3.283 3.45-6.566 3.45-3.93 0-7.66-2.95-7.66-7.9zm10.346-3.1c-.497-.95-1.492-1.7-2.935-1.7-2.238 0-4.427 2.35-4.029 4.65l6.964-2.95z" fill="#fff"/><path d="M123.452 24.976h3.432v-23.2h-3.432v23.2z" fill="#fff"/></svg>
